**kern	**kern	**dynam
*part1	*part1	*part1
*staff2	*staff1	*
*I"Piano	*	*
*clefF4	*clefG2	*
*k[f#]	*k[f#]	*
=1	=1	=1
4DD	(8bL 8dd	.
.	8g 8b	.
8D 8G	8aJ) 8cc	.
=	=	=
4GGG	(8b-XL 8dd	>
.	8a 8cc	.
8D 8G	8gJ 8b-	.
=	=	=
4DD	8aL 8cc	.
.	8g 8b-X	.
8D 8F#X	8dJ) 8a	] p
=||	=||	=||
*k[b-e-]	*k[b-e-]	*
!	!	!LO:DY:a
4GG	(8B-L 8g	p
.	8d 8a	.
8D 8G	8gJ) 8b-	.
=	=	=
4GG	(8b-L 8dd	.
.	8a 8cc	.
8D 8G	8gJ) 8b-	.
=	=	=
4DD	(8dL 8a	.
.	8g 8b-	.
8D 8A	8aJ) 8cc	.
=	=	=
4GG	(8gL 8b-	.
.	8d 8a	.
8D 8G	8B-J) 8g	.
=	=	=
4DD	(8dL 8a	.
.	8g 8b-	.
8D 8A	8aJ) 8cc	.
=	=	=
4GG	(8gL 8b-	.
.	8d 8a	.
8D 8G	8B-J) 8g	.
=	=	=
*-	*-	*-
!!!system-decoration: {(s1,s2)}
